X: 23799
T: Little Jimmy McKiernan's
R: reel
M: 4/4
K: Dmajor
BAFE DEFA|BABd efdB|BAFE DEFA|ABdA FE E2|
BAFE D3 A|BABd efdB|BAFE DEFA|ABdA FE E2||
Be ~e2 d2 fd|BdAd Bd A2|Be ~e2 defe|dBAF FE E2|
Be ~e2 d2 fd|BdAd Bd A2|Be ~e2 defe|dBAF FE E2||

